Origami/16x16/apps/armagetronad.svg

<svg width="16" height="16" version="1.1" viewBox="0 0 16 16" xmlns="http://www.w3.org/2000/svg">
 <path d="m8 0a8 8 0 0 0 -8 8 8 8 0 0 0 8 8 8 8 0 0 0 8 -8 8 8 0 0 0 -8 -8z" style="fill:#e3ac33"/>
 <path d="m8.1542115 2c-0.0578033 0.1722285-0.1116738 0.3233938-0.1751641 0.5330355-0.210415 0.6947788-0.4104748 1.5487261-0.4081576 2.0324067 0.0022314 0.4619187 0.2026657 1.2820178 0.4115098 1.9485958 0.0535375 0.1708533 0.0812374 0.2371723 0.126554 0.3704432 0.0616597-0.1247111 0.0894476-0.1925705 0.1692978-0.3452999 0.3391412-0.6486768 0.7635282-1.3967756 1.237882-1.875681 0.4896576-0.4943757 1.2606016-0.9424642 1.9301576-1.3007403 0.08524-0.045612 0.140383-0.06963 0.22126-0.1114678a6.0075428 6.0075428 0 0 0 -3.5133395 -1.2512922zm-0.9194021 0.04861a6.0075428 6.0075428 0 0 0 -3.3691858 1.5965916c0.080288 0.1607786 0.1488781 0.3031544 0.251432 0.4944826 0.3416138 0.6373282 0.8010509 1.382055 1.1532337 1.7373934 0.3495716 0.3527003 1.1205989 0.8396386 1.7834892 1.2043583 0.1013966 0.055789 0.171176 0.088876 0.2631652 0.1374495-0.0527789-0.1534691-0.0898682-0.2457226-0.1533735-0.4483866-0.2188741-0.6984932-0.4476825-1.5276487-0.4509008-2.2017044-0.0033471-0.6958168 0.2249254-1.5578897 0.445034-2.2846762 0.0280295-0.0925565 0.049488-0.1487078 0.077106-0.2355082zm5.1191506 1.8161755c-0.16325 0.081192-0.308699 0.1508884-0.502863 0.2547842-0.64007 0.3424964-1.385285 0.8045528-1.72566 1.1482049-0.3250601 0.3281925-0.7633571 1.0496516-1.0870238 1.6686688-0.0826865 0.1581546-0.1097578 0.2243543-0.1718119 0.3503286 0.1276453-0.0430325 0.2136845-0.0764447 0.3628998-0.1232019 0.6984928-0.2188741 1.5276489-0.4476825 2.2017049-0.4509008 0.695816-0.00335 1.557889 0.2249254 2.284676 0.445034 0.09256 0.02803 0.148707 0.049488 0.235508 0.077106a6.0075428 6.0075428 0 0 0 -1.59743 -3.3700238zm-9.1026677 0.4676632a6.0075428 6.0075428 0 0 0 -1.2512922 3.5125017c0.1698414 0.056666 0.3179423 0.1085309 0.5246542 0.1709733 0.6922165 0.2091016 1.5438471 0.410955 2.0441402 0.4131864 0.4965809 0.00223 1.3862349-0.1989951 2.1128648-0.4098337 0.077669-0.022537 0.1258932-0.040195 0.1977932-0.06202-0.0846149-0.0448083-0.1462884-0.0735681-0.2380223-0.1240396-0.6904666-0.3798926-1.4843389-0.8513302-1.9804439-1.3518645-0.4934875-0.4979026-0.94433-1.269529-1.3015784-1.9360246-0.0441194-0.0823111-0.0675711-0.1347025-0.1081156-0.212879zm8.1832647 3.238441c-0.461917 0.00223-1.282017 0.2026657-1.9485952 0.4115098-0.15613 0.048924-0.2407467 0.082054-0.369605 0.125716 0.1209331 0.059944 0.2055523 0.097511 0.3444618 0.1701358 0.6486774 0.3391416 1.3967754 0.7635282 1.8756804 1.237882 0.494376 0.4896577 0.942465 1.2606007 1.300741 1.9301577 0.04561 0.08524 0.06963 0.140383 0.111467 0.22126a6.0075428 6.0075428 0 0 0 1.251293 -3.5133396c-0.172229-0.0578033-0.323393-0.1116738-0.533035-0.1751641-0.694779-0.210415-1.548726-0.4104748-2.032408-0.4081576zm-4.256739 1.1917866c-0.0916268 0.028184-0.1557705 0.0512422-0.2564603 0.0804582-0.7568581 0.2196092-1.6511847 0.4473285-2.3559154 0.444196-0.7010185-0.0031325-1.565809-0.2305536-2.2897054-0.4492247-0.0895189-0.0270426-0.1430752-0.0479596-0.2271268-0.0745914a6.0075428 6.0075428 0 0 0 1.5965916 3.3708616c0.1607786-0.080287 0.3031544-0.148878 0.4944826-0.251432 0.6373282-0.341613 1.3820545-0.801051 1.7373934-1.153234 0.3526998-0.349571 0.8396386-1.1205984 1.2043583-1.7834886 0.038959-0.070809 0.0618-0.1185919 0.096382-0.1835451zm1.6100017 0.1399638c0.019353 0.063766 0.03526 0.1068902 0.055315 0.1760021 0.2196096 0.7568581 0.4473289 1.6511848 0.4441964 2.3559148-0.00313 0.701019-0.2305536 1.565809-0.4492247 2.289706-0.027043 0.08952-0.04796 0.143075-0.074591 0.227126a6.0075428 6.0075428 0 0 0 3.3717006 -1.597429c-0.0812-0.163251-0.150889-0.3087-0.254784-0.502863-0.342499-0.64007-0.804555-1.385285-1.148207-1.725661-0.328192-0.3250592-1.0496511-0.7633562-1.6686685-1.0870229-0.1140627-0.0596343-0.1758232-0.0858504-0.2757368-0.135773zm-0.8305629 0.2179073c-0.043759 0.0829071-0.0735774 0.1463047-0.1240399 0.2380222-0.3798926 0.6904664-0.8513302 1.4843394-1.3518645 1.9804444-0.4979026 0.493487-1.269529 0.94433-1.9360246 1.301578-0.082311 0.04412-0.1347025 0.06757-0.212879 0.108115a6.0075428 6.0075428 0 0 0 3.5125017 1.251293c0.0566661-0.169842 0.1085309-0.317942 0.1709733-0.524655 0.2091016-0.692216 0.410955-1.543846 0.4131864-2.044139 0.0022314-0.496582-0.1989951-1.386235-0.4098337-2.1128654-0.0225369-0.077669-0.0405295-0.1273685-0.0620197-0.1977932z" style="fill:#383838"/>
 <circle cx="8" cy="8" r="2" style="fill:#cccccc"/>
</svg>

<svg xmlns="http://www.w3.org/2000/svg" width="16" height="16" version="1.1" viewBox="0 0 16 16">
 <path style="fill:#e3ac33" d="M 8,0 A 8,8 0 0 0 0,8 8,8 0 0 0 8,16 8,8 0 0 0 16,8 8,8 0 0 0 8,0 Z"/>
 <path style="fill:#383838" d="M 8.1542115,2 C 8.0964082,2.1722285 8.0425377,2.3233938 7.9790474,2.5330355 7.7686324,3.2278143 7.5685726,4.0817616 7.5708898,4.5654422 7.5731212,5.0273609 7.7735555,5.84746 7.9823996,6.514038 8.0359371,6.6848913 8.063637,6.7512103 8.1089536,6.8844812 8.1706133,6.7597701 8.1984012,6.6919107 8.2782514,6.5391813 8.6173926,5.8905045 9.0417796,5.1424057 9.5161334,4.6635003 10.005791,4.1691246 10.776735,3.7210361 11.446291,3.36276 11.531531,3.317148 11.586674,3.29313 11.667551,3.2512922 A 6.0075428,6.0075428 0 0 0 8.1542115,2 Z M 7.2348094,2.04861 A 6.0075428,6.0075428 0 0 0 3.8656236,3.6452016 c 0.080288,0.1607786 0.1488781,0.3031544 0.251432,0.4944826 0.3416138,0.6373282 0.8010509,1.382055 1.1532337,1.7373934 0.3495716,0.3527003 1.1205989,0.8396386 1.7834892,1.2043583 0.1013966,0.055789 0.171176,0.088876 0.2631652,0.1374495 C 7.2641648,7.0654163 7.2270755,6.9731628 7.1635702,6.7704988 6.9446961,6.0720056 6.7158877,5.2428501 6.7126694,4.5687944 6.7093223,3.8729776 6.9375948,3.0109047 7.1577034,2.2841182 7.1857329,2.1915617 7.2071914,2.1354104 7.2348094,2.04861 Z M 12.35396,3.8647855 c -0.16325,0.081192 -0.308699,0.1508884 -0.502863,0.2547842 -0.64007,0.3424964 -1.385285,0.8045528 -1.72566,1.1482049 C 9.8003769,5.5959671 9.3620799,6.3174262 9.0384132,6.9364434 8.9557267,7.094598 8.9286554,7.1607977 8.8666013,7.286772 8.9942466,7.2437395 9.0802858,7.2103273 9.2295011,7.1635701 9.9279939,6.944696 10.75715,6.7158876 11.431206,6.7126693 c 0.695816,-0.00335 1.557889,0.2249254 2.284676,0.445034 0.09256,0.02803 0.148707,0.049488 0.235508,0.077106 A 6.0075428,6.0075428 0 0 0 12.35396,3.8647855 Z M 3.2512923,4.3324487 A 6.0075428,6.0075428 0 0 0 2.0000001,7.8449504 c 0.1698414,0.056666 0.3179423,0.1085309 0.5246542,0.1709733 0.6922165,0.2091016 1.5438471,0.410955 2.0441402,0.4131864 0.4965809,0.00223 1.3862349,-0.1989951 2.1128648,-0.4098337 0.077669,-0.022537 0.1258932,-0.040195 0.1977932,-0.06202 C 6.7948376,7.9124481 6.7331641,7.8836883 6.6414302,7.8332168 5.9509636,7.4533242 5.1570913,6.9818866 4.6609863,6.4813523 4.1674988,5.9834497 3.7166563,5.2118233 3.3594079,4.5453277 3.3152885,4.4630166 3.2918368,4.4106252 3.2512923,4.3324487 Z m 8.1832647,3.238441 c -0.461917,0.00223 -1.282017,0.2026657 -1.9485952,0.4115098 -0.15613,0.048924 -0.2407467,0.082054 -0.369605,0.125716 0.1209331,0.059944 0.2055523,0.097511 0.3444618,0.1701358 0.6486774,0.3391416 1.3967754,0.7635282 1.8756804,1.237882 0.494376,0.4896577 0.942465,1.2606007 1.300741,1.9301577 0.04561,0.08524 0.06963,0.140383 0.111467,0.22126 A 6.0075428,6.0075428 0 0 0 14,8.1542114 C 13.827771,8.0964081 13.676607,8.0425376 13.466965,7.9790473 12.772186,7.7686323 11.918239,7.5685725 11.434557,7.5708897 Z M 7.177818,8.7626763 C 7.0861912,8.7908603 7.0220475,8.8139185 6.9213577,8.8431345 6.1644996,9.0627437 5.270173,9.290463 4.5654423,9.2873305 3.8644238,9.284198 2.9996333,9.0567769 2.2757369,8.8381058 2.186218,8.8110632 2.1326617,8.7901462 2.0486101,8.7635144 A 6.0075428,6.0075428 0 0 0 3.6452017,12.134376 C 3.8059803,12.054089 3.9483561,11.985498 4.1396843,11.882944 4.7770125,11.541331 5.5217388,11.081893 5.8770777,10.72971 6.2297775,10.380139 6.7167163,9.6091116 7.081436,8.9462214 7.120395,8.8754124 7.143236,8.8276295 7.177818,8.7626763 Z m 1.6100017,0.1399638 c 0.019353,0.063766 0.03526,0.1068902 0.055315,0.1760021 0.2196096,0.7568581 0.4473289,1.6511848 0.4441964,2.3559148 -0.00313,0.701019 -0.2305536,1.565809 -0.4492247,2.289706 -0.027043,0.08952 -0.04796,0.143075 -0.074591,0.227126 A 6.0075428,6.0075428 0 0 0 12.135216,12.35396 c -0.0812,-0.163251 -0.150889,-0.3087 -0.254784,-0.502863 -0.342499,-0.64007 -0.804555,-1.385285 -1.148207,-1.725661 C 10.404033,9.8003768 9.6825739,9.3620798 9.0635565,9.0384131 8.9494938,8.9787788 8.8877333,8.9525627 8.7878197,8.9026401 Z M 7.9572568,9.1205474 C 7.9134978,9.2034545 7.8836794,9.2668521 7.8332169,9.3585696 7.4533243,10.049036 6.9818867,10.842909 6.4813524,11.339014 c -0.4979026,0.493487 -1.269529,0.94433 -1.9360246,1.301578 -0.082311,0.04412 -0.1347025,0.06757 -0.212879,0.108115 A 6.0075428,6.0075428 0 0 0 7.8449505,14 C 7.9016166,13.830158 7.9534814,13.682058 8.0159238,13.475345 8.2250254,12.783129 8.4268788,11.931499 8.4291102,11.431206 8.4313416,10.934624 8.2301151,10.044971 8.0192765,9.3183406 7.9967396,9.2406716 7.978747,9.1909721 7.9572568,9.1205474 Z"/>
 <circle style="fill:#cccccc" cx="8" cy="8" r="2"/>
</svg>
